!!!Genre:	Hopke
!!!Mode:	Major
!!!Listening/dance:	dance
!!!One_Mode:	yes
**kern
*I"P1
*clefG2
*k[f#]
*G:
*M2/4
*>A
=1
8.gTL
16dJk
8.f#tL
16dJk
=2
8.eTL
16dJk
4d
=3
8.eTL
16dJk
4d
=4
8.eTL
16dJk
4d
=5
8.gL
16dJk
8.aL
16dJk
=6
[4b
16bLL]
16d
16cc
16bJJ
=7
[4a
16aLL]
16d
16b
16aJJ
=8
4g
4gg
=9:|!
4g
8G
8r
=10!|:
*>B
8.aL
16dJk
8.aL
16dJk
=11
(8qd/
16aLL)
16cc
16b
16aJJ
16gLL
16f#
16g
16bJJ
=12
16aLL
(16d
16a)
(16dJJ
16aLL)
(16d
16a)
(16dJJ
=13
16aLL)
16cc
16b
16aJJ
4g
=14:|!|:
*>C
4.dd
8cc
=15
2b
=16
16bLL
16cc
16b
16ccJJ
8.ddL
16ccJk
=17
2b
=18
4.dd
8gg
=19
2b
=20
16bLL
16cc
16b
16ccJJ
8.ddL
16ccJk
=21
2b
=22:|!
*>D
4dd
16ffnLL
16ee
16dd
16ccJJ
=23
(16bLL
16g)
16b
16ddJJ
(16ccLL
16b)
16cc
16aJJ
=24
16bLL
16cc
16dd
16eeJJ
16ffnLL
16ee
16dd
16ccJJ
=25
16bLL
16g
16b
16ddJJ
16ccLL
16b
16cc
16aJJ
=26
(16gLL
16a)
16b
16gJJ
(16aLL
16b)
16cc
16aJJ
=27
16bLL
16cc
16dd
16bJJ
16ccLL
16dd
16ee
16ccJJ
=28
8dd
4a
16ddLL
16ccJJ
=29
(16bLL
16cc)
(16a
16bJJ)
8g
8r
==
*-
